assets/sonr-icons/fil-fill.svg

<svg xmlns="http://www.w3.org/2000/svg" width="24" height="24" fill="none"><path fill="currentColor" d="M22 12c0-5.523-4.477-10-10-10S2 6.478 2 12s4.477 10 10 10 10-4.477 10-10m-9.102-1.201-.307 1.641 2.923.41-.205.769-2.872-.41c-.206.667-.308 1.384-.564 2-.257.718-.513 1.436-.82 2.103-.41.872-1.128 1.487-2.103 1.641-.564.103-1.18.051-1.641-.308-.154-.103-.308-.308-.308-.461 0-.206.103-.461.256-.564.103-.051.359 0 .513.051.154.154.307.359.41.564.308.41.718.461 1.128.154.461-.41.718-.974.872-1.538.308-1.231.616-2.411.872-3.641v-.206l-2.718-.41.103-.769 2.821.41.359-1.59-2.924-.461.103-.82 3.025.41c.103-.308.154-.564.256-.821.256-.923.513-1.846 1.128-2.667s1.333-1.333 2.41-1.282c.461 0 .923.154 1.231.513.051.051.154.154.154.256 0 .205 0 .461-.154.616-.206.154-.461.103-.667-.103-.154-.154-.256-.308-.41-.461-.307-.41-.769-.461-1.128-.103a3.3 3.3 0 0 0-.667.974c-.359 1.077-.616 2.205-.974 3.334l2.821.41-.206.769-2.72-.411z"/></svg>

<svg xmlns="http://www.w3.org/2000/svg" width="24" height="24" fill="none" viewBox="0 0 24 24"><path fill="#000" d="M22 12C22 6.477 17.523 2 12 2C6.477 2 2 6.478 2 12C2 17.523 6.477 22 12 22C17.523 22 22 17.523 22 12ZM12.898 10.799L12.591 12.44L15.514 12.85L15.309 13.619L12.437 13.209C12.231 13.876 12.129 14.593 11.873 15.209C11.616 15.927 11.36 16.645 11.053 17.312C10.643 18.184 9.925 18.799 8.95 18.953C8.386 19.056 7.77 19.004 7.309 18.645C7.155 18.542 7.001 18.337 7.001 18.184C7.001 17.978 7.104 17.723 7.257 17.62C7.36 17.569 7.616 17.62 7.77 17.671C7.924 17.825 8.077 18.03 8.18 18.235C8.488 18.645 8.898 18.696 9.308 18.389C9.769 17.979 10.026 17.415 10.18 16.851C10.488 15.62 10.796 14.44 11.052 13.21V13.004L8.334 12.594L8.437 11.825L11.258 12.235L11.617 10.645L8.693 10.184L8.796 9.364L11.821 9.774C11.924 9.466 11.975 9.21 12.077 8.953C12.333 8.03 12.59 7.107 13.205 6.286C13.82 5.465 14.538 4.953 15.615 5.004C16.076 5.004 16.538 5.158 16.846 5.517C16.897 5.568 17 5.671 17 5.773C17 5.978 17 6.234 16.846 6.389C16.64 6.543 16.385 6.492 16.179 6.286C16.025 6.132 15.923 5.978 15.769 5.825C15.462 5.415 15 5.364 14.641 5.722C14.385 5.978 14.128 6.338 13.974 6.696C13.615 7.773 13.358 8.901 13 10.03L15.821 10.44L15.615 11.209L12.895 10.798L12.898 10.799Z"/></svg>
